app/static/images/icons/menu/people.svg

<svg fill="none" height="20" viewBox="0 0 24 20" width="24" xmlns="http://www.w3.org/2000/svg"><g stroke="#000" stroke-linecap="round" stroke-linejoin="round" stroke-width="2"><path d="m17 19v-2c0-1.0609-.4214-2.0783-1.1716-2.8284-.7501-.7502-1.7675-1.1716-2.8284-1.1716h-8c-1.06087 0-2.07828.4214-2.82843 1.1716-.75014.7501-1.17157 1.7675-1.17157 2.8284v2"/><path d="m9 9c2.2091 0 4-1.79086 4-4s-1.7909-4-4-4c-2.20914 0-4 1.79086-4 4s1.79086 4 4 4z"/><path d="m23 18.9999v-2c-.0007-.8863-.2956-1.7472-.8386-2.4477s-1.3033-1.2007-2.1614-1.4223"/><path d="m16 1.12988c.8604.2203 1.623.7207 2.1676 1.42231s.8402 1.56452.8402 2.45269-.2956 1.75108-.8402 2.45269-1.3072 1.20201-2.1676 1.42231"/></g></svg>

<svg width="24" height="20" viewBox="0 0 24 20" fill="none" xmlns="http://www.w3.org/2000/svg">
<path d="M17 19V17C17 15.9391 16.5786 14.9217 15.8284 14.1716C15.0783 13.4214 14.0609 13 13 13H5C3.93913 13 2.92172 13.4214 2.17157 14.1716C1.42143 14.9217 1 15.9391 1 17V19" stroke="#000" stroke-width="2" stroke-linecap="round" stroke-linejoin="round"/>
<path d="M9 9C11.2091 9 13 7.20914 13 5C13 2.79086 11.2091 1 9 1C6.79086 1 5 2.79086 5 5C5 7.20914 6.79086 9 9 9Z" stroke="#000" stroke-width="2" stroke-linecap="round" stroke-linejoin="round"/>
<path d="M23 18.9999V16.9999C22.9993 16.1136 22.7044 15.2527 22.1614 14.5522C21.6184 13.8517 20.8581 13.3515 20 13.1299" stroke="#000" stroke-width="2" stroke-linecap="round" stroke-linejoin="round"/>
<path d="M16 1.12988C16.8604 1.35018 17.623 1.85058 18.1676 2.55219C18.7122 3.2538 19.0078 4.11671 19.0078 5.00488C19.0078 5.89305 18.7122 6.75596 18.1676 7.45757C17.623 8.15918 16.8604 8.65958 16 8.87988" stroke="#000" stroke-width="2" stroke-linecap="round" stroke-linejoin="round"/>
</svg>
